icons/dashed square.svg

<svg width="24" height="24" viewBox="0 0 24 24" fill="none" xmlns="http://www.w3.org/2000/svg">
<path fill-rule="evenodd" clip-rule="evenodd" d="M7 3.75C6.56041 3.75 6.14163 3.83831 5.75923 3.99787C5.37697 4.15738 4.93777 3.9768 4.77826 3.59454C4.61874 3.21227 4.79932 2.77307 5.18159 2.61356C5.74279 2.37938 6.35761 2.25 7 2.25H8.25C8.66421 2.25 9 2.58579 9 3C9 3.41421 8.66421 3.75 8.25 3.75H7ZM10 3C10 2.58579 10.3358 2.25 10.75 2.25H13.25C13.6642 2.25 14 2.58579 14 3C14 3.41421 13.6642 3.75 13.25 3.75H10.75C10.3358 3.75 10 3.41421 10 3ZM15 3C15 2.58579 15.3358 2.25 15.75 2.25H17C17.6424 2.25 18.2572 2.37938 18.8184 2.61356C19.2007 2.77307 19.3813 3.21227 19.2217 3.59454C19.0622 3.9768 18.623 4.15738 18.2408 3.99787C17.8584 3.83831 17.4396 3.75 17 3.75H15.75C15.3358 3.75 15 3.41421 15 3ZM20.4055 4.77826C20.7877 4.61874 21.2269 4.79932 21.3864 5.18159C21.6206 5.74279 21.75 6.35761 21.75 7V8.25C21.75 8.66421 21.4142 9 21 9C20.5858 9 20.25 8.66421 20.25 8.25V7C20.25 6.56041 20.1617 6.14163 20.0021 5.75923C19.8426 5.37697 20.0232 4.93777 20.4055 4.77826ZM3.59454 4.77826C3.9768 4.93777 4.15738 5.37697 3.99787 5.75923C3.83831 6.14163 3.75 6.56041 3.75 7V8.25C3.75 8.66421 3.41421 9 3 9C2.58579 9 2.25 8.66421 2.25 8.25V7C2.25 6.35761 2.37938 5.74279 2.61356 5.18159C2.77307 4.79932 3.21227 4.61874 3.59454 4.77826ZM3 10C3.41421 10 3.75 10.3358 3.75 10.75V13.25C3.75 13.6642 3.41421 14 3 14C2.58579 14 2.25 13.6642 2.25 13.25V10.75C2.25 10.3358 2.58579 10 3 10ZM21 10C21.4142 10 21.75 10.3358 21.75 10.75V13.25C21.75 13.6642 21.4142 14 21 14C20.5858 14 20.25 13.6642 20.25 13.25V10.75C20.25 10.3358 20.5858 10 21 10ZM3 15C3.41421 15 3.75 15.3358 3.75 15.75V17C3.75 17.4396 3.83831 17.8584 3.99787 18.2408C4.15738 18.623 3.9768 19.0622 3.59454 19.2217C3.21227 19.3813 2.77307 19.2007 2.61356 18.8184C2.37938 18.2572 2.25 17.6424 2.25 17V15.75C2.25 15.3358 2.58579 15 3 15ZM21 15C21.4142 15 21.75 15.3358 21.75 15.75V17C21.75 17.6424 21.6206 18.2572 21.3864 18.8184C21.2269 19.2007 20.7877 19.3813 20.4055 19.2217C20.0232 19.0622 19.8426 18.623 20.0021 18.2408C20.1617 17.8584 20.25 17.4396 20.25 17V15.75C20.25 15.3358 20.5858 15 21 15ZM4.77826 20.4055C4.93777 20.0232 5.37697 19.8426 5.75923 20.0021C6.14163 20.1617 6.56041 20.25 7 20.25H8.25C8.66421 20.25 9 20.5858 9 21C9 21.4142 8.66421 21.75 8.25 21.75H7C6.35761 21.75 5.74279 21.6206 5.18159 21.3864C4.79932 21.2269 4.61874 20.7877 4.77826 20.4055ZM19.2217 20.4055C19.3813 20.7877 19.2007 21.2269 18.8184 21.3864C18.2572 21.6206 17.6424 21.75 17 21.75H15.75C15.3358 21.75 15 21.4142 15 21C15 20.5858 15.3358 20.25 15.75 20.25H17C17.4396 20.25 17.8584 20.1617 18.2408 20.0021C18.623 19.8426 19.0622 20.0232 19.2217 20.4055ZM10 21C10 20.5858 10.3358 20.25 10.75 20.25H13.25C13.6642 20.25 14 20.5858 14 21C14 21.4142 13.6642 21.75 13.25 21.75H10.75C10.3358 21.75 10 21.4142 10 21Z" fill="black"/>
</svg>

<svg xmlns="http://www.w3.org/2000/svg" fill="none" viewBox="0 0 24 24">
  <path fill="#000" fill-rule="evenodd" d="M7 3.75c-.44 0-.858.088-1.24.248a.75.75 0 0 1-.578-1.384A4.713 4.713 0 0 1 7 2.25h1.25a.75.75 0 0 1 0 1.5H7ZM10 3a.75.75 0 0 1 .75-.75h2.5a.75.75 0 0 1 0 1.5h-2.5A.75.75 0 0 1 10 3Zm5 0a.75.75 0 0 1 .75-.75H17c.642 0 1.257.13 1.818.364a.75.75 0 1 1-.577 1.384A3.214 3.214 0 0 0 17 3.75h-1.25A.75.75 0 0 1 15 3Zm5.405 1.778a.75.75 0 0 1 .981.404c.235.56.364 1.176.364 1.818v1.25a.75.75 0 0 1-1.5 0V7c0-.44-.088-.858-.248-1.24a.75.75 0 0 1 .404-.982Zm-16.81 0a.75.75 0 0 1 .403.981c-.16.383-.248.801-.248 1.241v1.25a.75.75 0 0 1-1.5 0V7c0-.642.13-1.257.364-1.818a.75.75 0 0 1 .98-.404ZM3 10a.75.75 0 0 1 .75.75v2.5a.75.75 0 0 1-1.5 0v-2.5A.75.75 0 0 1 3 10Zm18 0a.75.75 0 0 1 .75.75v2.5a.75.75 0 0 1-1.5 0v-2.5A.75.75 0 0 1 21 10ZM3 15a.75.75 0 0 1 .75.75V17c0 .44.088.858.248 1.24a.75.75 0 1 1-1.384.578A4.713 4.713 0 0 1 2.25 17v-1.25A.75.75 0 0 1 3 15Zm18 0a.75.75 0 0 1 .75.75V17c0 .642-.13 1.257-.364 1.818a.75.75 0 1 1-1.384-.577c.16-.383.248-.801.248-1.241v-1.25A.75.75 0 0 1 21 15ZM4.778 20.405a.75.75 0 0 1 .981-.403c.383.16.801.248 1.241.248h1.25a.75.75 0 0 1 0 1.5H7c-.642 0-1.257-.13-1.818-.364a.75.75 0 0 1-.404-.98Zm14.444 0a.75.75 0 0 1-.404.981A4.713 4.713 0 0 1 17 21.75h-1.25a.75.75 0 0 1 0-1.5H17c.44 0 .858-.088 1.24-.248a.75.75 0 0 1 .982.404ZM10 21a.75.75 0 0 1 .75-.75h2.5a.75.75 0 0 1 0 1.5h-2.5A.75.75 0 0 1 10 21Z" clip-rule="evenodd"/>
</svg>
